;Generated with Cura_SteamEngine 14.09
;--------------------------------------
; RF1000
;--------------------------------------
G28 ; home all axes
G1 Z5 F500 ; lift nozzle
M190 S60
M104 T0 S220
; Wait for all used extruders to reach temperature
M109 T0 S220
G90 ; use absolute coordinates
M82 ; use absolute distances for extrusion
G92 E0 ; start line
M3001 ; Aktivate Z-Compensation
; Move Z-axis n-steps up (see manual)
M3004 S0 ; + n-steps bed down // - n-steps bed up!
G1 F300 E-0.5
G1 X230 Y25 Z0.35 F5000
G1 F800 E10
G1 X20 E25 F1000
; Acceleration up to...
; Acc printing
M201 X3000 Y3000 Z100
; Acc travel
M202 X3000 Y3000 Z100
; ZJERK
M205 Z0.1
G92 E0
;--------------------------------------
;Layer count: 67
;LAYER:0
M107
G0 F7800 X129.910 Y119.086 Z0.350
;TYPE:SKIRT
G1 F1800 X132.602 Y116.174 E0.10800
G1 X135.957 Y114.056 E0.21605
G1 X139.747 Y112.880 E0.32412
G1 X143.709 Y112.725 E0.43210
G1 X147.577 Y113.601 E0.54010
G1 X151.089 Y115.449 E0.64818
G1 X154.001 Y118.142 E0.75620
G1 X156.113 Y121.489 E0.86397
G1 X157.291 Y125.273 E0.97190
G1 X157.427 Y128.654 E1.06405
G1 X157.427 Y129.360 E1.08328
G1 X156.572 Y133.119 E1.18826
G1 X154.727 Y136.628 E1.29623
G1 X152.271 Y139.284 E1.39474
G1 X155.946 Y139.139 E1.49490
G1 X159.815 Y140.016 E1.60294
G1 X163.325 Y141.862 E1.71095
G1 X166.238 Y144.557 E1.81902
G1 X168.350 Y147.904 E1.92680
G1 X169.528 Y151.689 E2.03475
G1 X169.663 Y155.069 E2.12687
G1 X169.663 Y155.773 E2.14605
G1 X168.810 Y159.533 E2.25104
G1 X166.962 Y163.043 E2.35907
G1 X164.270 Y165.955 E2.46707
G1 X160.915 Y168.072 E2.57511
G1 X157.125 Y169.248 E2.68317
G1 X153.163 Y169.403 E2.79116
G1 X149.295 Y168.527 E2.89916
G1 X145.783 Y166.679 E3.00724
G1 X142.871 Y163.986 E3.11525
G1 X140.759 Y160.639 E3.22303
G1 X139.581 Y156.855 E3.33096
G1 X139.422 Y152.882 E3.43924
G1 X140.299 Y149.012 E3.54731
G1 X142.145 Y145.500 E3.65536
G1 X144.602 Y142.845 E3.75387
G1 X140.926 Y142.989 E3.85406
G1 X137.057 Y142.113 E3.96209
G1 X133.547 Y140.265 E4.07012
G1 X130.634 Y137.573 E4.17814
G1 X128.522 Y134.225 E4.28594
G1 X127.343 Y130.440 E4.39390
G1 X127.186 Y126.467 E4.50218
G1 X128.062 Y122.596 E4.61027
G1 X129.910 Y119.086 E4.71830
G0 F7800 X130.363 Y119.406
G1 F1800 X132.956 Y116.600 E4.82235
G1 X136.189 Y114.560 E4.92645
G1 X139.841 Y113.427 E5.03058
G1 X143.658 Y113.278 E5.13461
G1 X147.385 Y114.121 E5.23867
G1 X150.769 Y115.902 E5.34282
G1 X153.575 Y118.496 E5.44688
G1 X155.609 Y121.722 E5.55074
G1 X156.745 Y125.368 E5.65474
G1 X156.877 Y128.665 E5.74460
G1 X156.877 Y129.298 E5.76184
G1 X156.052 Y132.927 E5.86319
G1 X154.274 Y136.308 E5.96722
G1 X151.678 Y139.114 E6.07133
G1 X149.024 Y140.789 E6.15679
G1 X152.077 Y139.842 E6.24384
G1 X155.895 Y139.691 E6.34790
G1 X159.623 Y140.537 E6.45201
G1 X163.005 Y142.315 E6.55606
G1 X165.812 Y144.911 E6.66019
G1 X167.846 Y148.137 E6.76405
G1 X168.982 Y151.783 E6.86805
G1 X169.113 Y155.080 E6.95790
G1 X169.113 Y155.711 E6.97509
G1 X168.289 Y159.341 E7.07646
G1 X166.509 Y162.723 E7.18054
G1 X163.915 Y165.528 E7.28459
G1 X160.683 Y167.568 E7.38867
G1 X157.031 Y168.701 E7.49280
G1 X153.214 Y168.850 E7.59683
G1 X149.487 Y168.007 E7.70089
G1 X146.103 Y166.226 E7.80503
G1 X143.297 Y163.632 E7.90910
G1 X141.263 Y160.406 E8.01296
G1 X140.127 Y156.760 E8.11696
G1 X139.974 Y152.932 E8.22129
G1 X140.819 Y149.204 E8.32539
G1 X142.598 Y145.820 E8.42951
G1 X145.194 Y143.015 E8.53359
G1 X147.847 Y141.340 E8.61904
G1 X144.794 Y142.287 E8.70609
G1 X140.977 Y142.436 E8.81012
G1 X137.249 Y141.593 E8.91420
G1 X133.867 Y139.812 E9.01830
G1 X131.061 Y137.218 E9.12236
G1 X129.026 Y133.992 E9.22624
G1 X127.890 Y130.345 E9.33026
G1 X127.738 Y126.517 E9.43459
G1 X128.582 Y122.788 E9.53872
G1 X130.363 Y119.406 E9.64281
G0 F7800 X130.816 Y119.726
G1 F1800 X133.311 Y117.026 E9.74293
G1 X136.421 Y115.063 E9.84308
G1 X139.934 Y113.973 E9.94325
G1 X143.607 Y113.830 E10.04335
G1 X147.193 Y114.642 E10.14348
G1 X150.449 Y116.355 E10.24368
G1 X153.148 Y118.851 E10.34379
G1 X155.106 Y121.954 E10.44372
G1 X156.198 Y125.462 E10.54377
G1 X156.327 Y128.676 E10.63137
G1 X156.327 Y129.236 E10.64662
G1 X155.531 Y132.735 E10.74434
G1 X153.821 Y135.988 E10.84443
G1 X151.323 Y138.688 E10.94460
G1 X148.214 Y140.651 E11.04473
G1 X144.701 Y141.741 E11.14490
G1 X141.028 Y141.884 E11.24500
G1 X137.441 Y141.072 E11.34516
G1 X134.187 Y139.359 E11.44531
G1 X131.487 Y136.863 E11.54544
G1 X129.529 Y133.760 E11.64536
G1 X128.437 Y130.251 E11.74545
G1 X128.291 Y126.568 E11.84582
G1 X129.103 Y122.980 E11.94601
G1 X130.816 Y119.726 E12.04615
G0 F7800 X131.269 Y120.047
G1 F1800 X133.666 Y117.453 E12.14234
G1 X136.653 Y115.567 E12.23854
G1 X140.028 Y114.520 E12.33478
G1 X143.557 Y114.382 E12.43095
G1 X147.001 Y115.162 E12.52712
G1 X150.128 Y116.808 E12.62336
G1 X152.722 Y119.206 E12.71956
G1 X154.602 Y122.186 E12.81552
G1 X155.651 Y125.556 E12.91163
G1 X155.777 Y128.687 E12.99697
G1 X155.777 Y129.174 E13.01023
G1 X155.011 Y132.542 E13.10430
G1 X153.368 Y135.667 E13.20045
G1 X150.969 Y138.261 E13.29667
G1 X147.982 Y140.147 E13.39287
G1 X144.607 Y141.194 E13.48911
G1 X141.078 Y141.332 E13.58528
G1 X137.633 Y140.552 E13.68148
G1 X134.508 Y138.906 E13.77767
G1 X131.914 Y136.509 E13.87385
G1 X130.033 Y133.528 E13.96984
G1 X128.983 Y130.157 E14.06600
G1 X128.843 Y126.619 E14.16242
G1 X129.623 Y123.172 E14.25867
G1 X131.269 Y120.047 E14.35486
G0 F7800 X131.722 Y120.367
G1 F1800 X134.021 Y117.879 E14.44711
G1 X136.886 Y116.071 E14.53937
G1 X140.122 Y115.067 E14.63164
G1 X143.506 Y114.935 E14.72387
G1 X146.809 Y115.683 E14.81610
G1 X149.808 Y117.261 E14.90839
G1 X152.295 Y119.560 E15.00062
G1 X154.098 Y122.419 E15.09267
G1 X155.105 Y125.651 E15.18486
G1 X155.227 Y128.698 E15.26791
G1 X155.227 Y129.113 E15.27921
G1 X154.491 Y132.350 E15.36961
G1 X152.915 Y135.347 E15.46183
G1 X150.614 Y137.835 E15.55412
G1 X147.749 Y139.643 E15.64638
G1 X144.513 Y140.647 E15.73865
G1 X141.129 Y140.779 E15.83087
G1 X137.826 Y140.031 E15.92310
G1 X134.828 Y138.453 E16.01537
G1 X132.340 Y136.154 E16.10762
G1 X130.537 Y133.295 E16.19967
G1 X129.530 Y130.062 E16.29189
G1 X129.396 Y126.669 E16.38436
G1 X130.144 Y123.365 E16.47662
G1 X131.722 Y120.367 E16.56888
G0 F7800 X132.175 Y120.687
G1 F1800 X134.376 Y118.306 E16.65718
G1 X137.118 Y116.575 E16.74549
G1 X140.216 Y115.614 E16.83383
G1 X143.455 Y115.487 E16.92210
G1 X146.617 Y116.203 E17.01039
G1 X149.488 Y117.714 E17.09875
G1 X151.869 Y119.915 E17.18705
G1 X153.595 Y122.651 E17.27515
G1 X154.558 Y125.745 E17.36339
G1 X154.677 Y128.709 E17.44418
G1 X154.677 Y129.051 E17.45349
G1 X153.970 Y132.158 E17.54027
G1 X152.462 Y135.027 E17.62854
G1 X150.259 Y137.408 E17.71688
G1 X147.517 Y139.139 E17.80518
G1 X144.419 Y140.100 E17.89352
G1 X141.180 Y140.227 E17.98179
G1 X138.018 Y139.511 E18.07009
G1 X135.148 Y138.000 E18.15842
G1 X132.767 Y135.799 E18.24672
G1 X131.040 Y133.063 E18.33483
G1 X130.077 Y129.968 E18.42310
G1 X129.948 Y126.720 E18.51163
G1 X130.664 Y123.557 E18.59994
G1 X132.175 Y120.687 E18.68827
G0 F7800 X132.628 Y121.007
G1 F1800 X134.730 Y118.732 E18.77263
G1 X137.350 Y117.079 E18.85699
G1 X140.310 Y116.160 E18.94140
G1 X143.404 Y116.040 E19.02572
G1 X146.425 Y116.723 E19.11007
G1 X149.168 Y118.167 E19.19449
G1 X151.442 Y120.270 E19.27884
G1 X153.091 Y122.884 E19.36301
G1 X154.011 Y125.840 E19.44732
G1 X154.127 Y128.720 E19.52581
G1 X154.127 Y128.989 E19.53314
G1 X153.450 Y131.966 E19.61628
G1 X152.009 Y134.707 E19.70061
G1 X149.904 Y136.982 E19.78502
G1 X147.285 Y138.635 E19.86936
G1 X144.325 Y139.554 E19.95377
G1 X141.231 Y139.674 E20.03809
G1 X138.210 Y138.991 E20.12244
G1 X135.468 Y137.547 E20.20684
G1 X133.193 Y135.445 E20.29119
G1 X131.544 Y132.830 E20.37538
G1 X130.624 Y129.874 E20.45969
G1 X130.500 Y126.771 E20.54426
G1 X131.184 Y123.749 E20.62864
G1 X132.628 Y121.007 E20.71304
G0 F7800 X133.081 Y121.327
G1 F1800 X135.085 Y119.159 E20.79344
G1 X137.582 Y117.582 E20.87387
G1 X140.403 Y116.707 E20.95430
G1 X143.353 Y116.592 E21.03470
G1 X146.233 Y117.244 E21.11512
G1 X148.848 Y118.620 E21.19559
G1 X151.015 Y120.624 E21.27597
G1 X152.587 Y123.116 E21.35621
G1 X153.465 Y125.934 E21.43659
G1 X153.577 Y128.731 E21.51282
G1 X153.577 Y128.927 E21.51816
G1 X152.930 Y131.774 E21.59767
G1 X151.556 Y134.387 E21.67807
G1 X149.550 Y136.555 E21.75851
G1 X147.053 Y138.132 E21.83894
G1 X144.232 Y139.007 E21.91937
G1 X141.282 Y139.122 E21.99977
G1 X138.402 Y138.470 E22.08019
G1 X135.788 Y137.094 E22.16063
G1 X133.620 Y135.090 E22.24104
G1 X132.048 Y132.598 E22.32128
G1 X131.170 Y129.780 E22.40166
G1 X131.053 Y126.821 E22.48230
G1 X131.705 Y123.941 E22.56272
G1 X133.081 Y121.327 E22.64317
G0 F7800 X133.534 Y121.648
G1 F1800 X135.440 Y119.585 E22.71966
G1 X137.815 Y118.086 E22.79614
G1 X140.497 Y117.254 E22.87262
G1 X143.302 Y117.144 E22.94906
G1 X146.041 Y117.764 E23.02554
G1 X148.527 Y119.073 E23.10206
G1 X150.589 Y120.979 E23.17852
G1 X152.084 Y123.348 E23.25481
G1 X152.918 Y126.028 E23.33125
G1 X153.027 Y128.742 E23.40522
G1 X153.027 Y128.866 E23.40860
G1 X152.409 Y131.581 E23.48443
G1 X151.103 Y134.066 E23.56088
G1 X149.195 Y136.129 E23.63740
G1 X146.820 Y137.628 E23.71389
G1 X144.138 Y138.460 E23.79036
G1 X141.333 Y138.570 E23.86681
G1 X138.594 Y137.950 E23.94329
G1 X136.109 Y136.641 E24.01978
G1 X134.046 Y134.735 E24.09627
G1 X132.551 Y132.366 E24.17256
G1 X131.717 Y129.685 E24.24902
G1 X131.605 Y126.872 E24.32569
G1 X132.225 Y124.133 E24.40217
G1 X133.534 Y121.648 E24.47866
G0 F7800 X133.987 Y121.968
G1 F1800 X135.795 Y120.012 E24.55119
G1 X138.047 Y118.590 E24.62373
G1 X140.591 Y117.801 E24.69626
G1 X143.251 Y117.697 E24.76876
G1 X145.849 Y118.285 E24.84130
G1 X148.207 Y119.526 E24.91387
G1 X150.162 Y121.334 E24.98638
G1 X151.580 Y123.581 E25.05874
G1 X152.371 Y126.123 E25.13124
G1 X152.477 Y128.753 E25.20293
G1 X152.477 Y128.804 E25.20431
G1 X151.889 Y131.389 E25.27651
G1 X150.650 Y133.746 E25.34903
G1 X148.840 Y135.702 E25.42160
G1 X146.588 Y137.124 E25.49413
G1 X144.044 Y137.913 E25.56667
G1 X141.384 Y138.017 E25.63917
G1 X138.786 Y137.429 E25.71171
G1 X136.429 Y136.188 E25.78425
G1 X134.473 Y134.380 E25.85679
G1 X133.055 Y132.133 E25.92915
G1 X132.264 Y129.591 E26.00165
G1 X132.158 Y126.923 E26.07436
G1 X132.746 Y124.325 E26.14691
G1 X133.987 Y121.968 E26.21945
G0 F7800 X124.525 Y117.354
G1 F1800 X124.325 Y117.554 E26.22715
G1 X124.325 Y117.754 E26.23260
G1 X124.125 Y117.954 E26.24030
G1 X124.125 Y118.154 E26.24575
G1 X123.925 Y118.354 E26.25345
G1 X123.925 Y118.754 E26.26434
G1 X123.725 Y118.954 E26.27205
G1 X123.725 Y119.154 E26.27749
G1 X123.525 Y119.354 E26.28519
G1 X123.525 Y119.754 E26.29609
G1 X123.325 Y119.954 E26.30379
G1 X123.325 Y120.154 E26.30924
G1 X123.125 Y120.354 E26.31694
G1 X123.125 Y120.554 E26.32239
G1 X122.925 Y120.754 E26.33009
G1 X122.925 Y121.154 E26.34098
G1 X122.725 Y121.354 E26.34869
G1 X122.725 Y121.554 E26.35413
G1 X122.525 Y121.754 E26.36183
G1 X122.525 Y121.954 E26.36728
G1 X122.325 Y122.154 E26.37498
G1 X122.325 Y123.554 E26.41311
G1 X122.125 Y123.754 E26.42081
G1 X122.125 Y125.154 E26.45894
G1 X121.925 Y125.354 E26.46664
G1 X121.925 Y126.754 E26.50477
G1 X121.725 Y126.954 E26.51247
G1 X121.725 Y128.154 E26.54515
G1 X121.525 Y128.354 E26.55285
G1 X121.525 Y129.754 E26.59098
G1 X121.325 Y129.954 E26.59868
G1 X121.325 Y131.354 E26.63681
G1 X121.125 Y131.554 E26.64451
G1 X121.125 Y132.446 E26.66880
G1 X121.325 Y132.646 E26.67651
G1 X121.325 Y133.846 E26.70919
G1 X121.525 Y134.046 E26.71689
G1 X121.525 Y135.446 E26.75502
G1 X121.725 Y135.646 E26.76272
G1 X121.725 Y137.046 E26.80085
G1 X121.925 Y137.246 E26.80855
G1 X121.925 Y138.446 E26.84123
G1 X122.125 Y138.646 E26.84893
G1 X122.125 Y140.046 E26.88706
G1 X122.325 Y140.246 E26.89476
G1 X122.325 Y141.646 E26.93289
G1 X122.525 Y141.846 E26.94059
G1 X122.525 Y142.046 E26.94604
G1 X122.725 Y142.246 E26.95374
G1 X122.725 Y142.446 E26.95918
G1 X122.925 Y142.646 E26.96689
G1 X122.925 Y143.046 E26.97778
G1 X123.125 Y143.246 E26.98548
G1 X123.125 Y143.446 E26.99093
G1 X123.325 Y143.646 E26.99863
G1 X123.325 Y143.846 E27.00408
G1 X123.525 Y144.046 E27.01178
G1 X123.525 Y144.446 E27.02268
G1 X123.725 Y144.646 E27.03038
G1 X123.725 Y144.846 E27.03582
G1 X123.925 Y145.046 E27.04353
G1 X123.925 Y145.446 E27.05442
G1 X124.125 Y145.646 E27.06212
G1 X124.125 Y145.846 E27.06757
G1 X124.325 Y146.046 E27.07527
G1 X124.325 Y146.246 E27.08072
G1 X124.525 Y146.446 E27.08842
G1 X124.525 Y146.846 E27.09932
G1 X124.725 Y147.046 E27.10702
G1 X124.725 Y147.246 E27.11246
G1 X124.925 Y147.446 E27.12017
G1 X124.925 Y147.646 E27.12561
G1 X125.125 Y147.846 E27.13332
G1 X125.125 Y148.246 E27.14421
G1 X125.325 Y148.446 E27.15191
G1 X125.325 Y148.646 E27.15736
G1 X125.525 Y148.846 E27.16506
G1 X125.525 Y149.246 E27.17596
G1 X125.725 Y149.446 E27.18366
G1 X125.725 Y149.646 E27.18910
G1 X125.925 Y149.846 E27.19681
G1 X125.925 Y150.046 E27.20225
G1 X126.125 Y150.246 E27.20996
G1 X126.125 Y150.646 E27.22085
G1 X126.325 Y150.846 E27.22855
G1 X126.325 Y151.046 E27.23400
G1 X126.525 Y151.246 E27.24170
G1 X126.525 Y151.446 E27.24715
G1 X126.725 Y151.646 E27.25485
G1 X126.725 Y152.046 E27.26574
G1 X126.925 Y152.246 E27.27345
G1 X126.925 Y152.446 E27.27889
G1 X127.125 Y152.646 E27.28660
G1 X127.125 Y153.046 E27.29749
G1 X127.925 Y153.846 E27.32830
G1 X127.925 Y154.046 E27.33375
G1 X128.525 Y154.646 E27.35686
G1 X128.525 Y154.846 E27.36230
G1 X129.325 Y155.646 E27.39311
G1 X129.325 Y155.846 E27.39856
G1 X129.925 Y156.446 E27.42167
G1 X129.925 Y156.646 E27.42711
G1 X130.725 Y157.446 E27.45793
G1 X130.725 Y157.646 E27.46337
G1 X131.325 Y158.246 E27.48648
G1 X131.325 Y158.446 E27.49193
G1 X132.125 Y159.246 E27.52274
G1 X132.125 Y159.446 E27.52818
G1 X132.725 Y160.046 E27.55129
G1 X132.725 Y160.246 E27.55674
G1 X133.525 Y161.046 E27.58755
G1 X133.525 Y161.246 E27.59300
G1 X133.911 Y161.631 E27.60784
G1 X134.310 Y161.831 E27.62000
G1 X134.911 Y162.432 E27.64314
G1 X135.310 Y162.631 E27.65529
G1 X135.711 Y163.031 E27.67071
G1 X136.110 Y163.231 E27.68287
G1 X136.711 Y163.832 E27.70601
G1 X137.110 Y164.031 E27.71816
G1 X137.511 Y164.431 E27.73358
G1 X137.910 Y164.631 E27.74574
G1 X138.511 Y165.232 E27.76888
G1 X138.910 Y165.431 E27.78102
G1 X139.311 Y165.831 E27.79645
G1 X139.710 Y166.031 E27.80860
G1 X140.311 Y166.632 E27.83175
G1 X140.710 Y166.831 E27.84389
G1 X141.111 Y167.231 E27.85932
G1 X141.510 Y167.431 E27.87147
G1 X141.901 Y167.822 E27.88653
G1 X142.474 Y168.013 E27.90298
G1 X143.273 Y168.412 E27.92730
G1 X143.874 Y168.613 E27.94456
G1 X144.673 Y169.012 E27.96888
G1 X145.274 Y169.213 E27.98614
G1 X145.673 Y169.412 E27.99828
G1 X146.274 Y169.613 E28.01554
G1 X147.073 Y170.012 E28.03986
G1 X147.674 Y170.213 E28.05712
G1 X148.473 Y170.612 E28.08144
G1 X149.074 Y170.813 E28.09870
G1 X149.473 Y171.012 E28.11084
G1 X150.074 Y171.213 E28.12810
G1 X150.872 Y171.612 E28.15240
G1 X151.475 Y171.813 E28.16971
G1 X151.741 Y171.946 E28.17781
G1 X155.586 Y172.427 E28.28333
G1 X156.982 Y172.626 E28.32174
G1 X161.786 Y173.227 E28.45358
G1 X162.852 Y173.379 E28.48291
G1 X163.629 Y173.387 E28.50407
G1 X164.918 Y173.226 E28.53945
G1 X166.314 Y173.027 E28.57785
G1 X169.517 Y172.626 E28.66576
G1 X170.913 Y172.427 E28.70416
G1 X172.533 Y172.224 E28.74862
G1 X173.192 Y172.130 E28.76675
G1 X173.426 Y172.013 E28.77387
G1 X174.027 Y171.812 E28.79113
G1 X174.826 Y171.413 E28.81545
G1 X175.427 Y171.212 E28.83271
G1 X176.226 Y170.813 E28.85703
G1 X176.827 Y170.612 E28.87429
G1 X177.226 Y170.413 E28.88643
G1 X177.827 Y170.212 E28.90369
G1 X178.626 Y169.813 E28.92801
G1 X179.227 Y169.612 E28.94527
G1 X180.026 Y169.213 E28.96959
G1 X180.627 Y169.012 E28.98685
