;Generated with Cura_SteamEngine 14.09
;--------------------------------------
; RF1000
;--------------------------------------
G28 ; home all axes
G1 Z5 F500 ; lift nozzle
M190 S60
M104 T0 S220
; Wait for all used extruders to reach temperature
M109 T0 S220
G90 ; use absolute coordinates
M82 ; use absolute distances for extrusion
G92 E0 ; start line
M3001 ; Aktivate Z-Compensation
; Move Z-axis n-steps up (see manual)
M3004 S0 ; + n-steps bed down // - n-steps bed up!
G1 F300 E-0.5
G1 X230 Y25 Z0.35 F5000
G1 F800 E10
G1 X20 E25 F1000
; Acceleration up to...
; Acc printing
M201 X3000 Y3000 Z100
; Acc travel
M202 X3000 Y3000 Z100
; ZJERK
M205 Z0.1
G92 E0
;--------------------------------------
;Layer count: 17
;LAYER:0
M107
G0 F7800 X94.725 Y136.225 Z0.350
;TYPE:SKIRT
G1 F1800 X94.725 Y176.775 E1.10431
G1 X150.275 Y176.775 E2.61711
G1 X150.275 Y136.225 E3.72141
G1 X94.725 Y136.225 E5.23422
G0 F7800 X94.175 Y135.675
G1 F1800 X94.175 Y177.325 E6.36848
G1 X150.825 Y177.325 E7.91124
G1 X150.825 Y135.675 E9.04550
G1 X94.175 Y135.675 E10.58826
G0 F7800 X93.625 Y135.125
G1 F1800 X93.625 Y177.875 E11.75248
G1 X151.375 Y177.875 E13.32519
G1 X151.375 Y135.125 E14.48941
G1 X93.625 Y135.125 E16.06213
G0 F7800 X93.075 Y134.575
G1 F1800 X93.075 Y178.425 E17.25630
G1 X151.925 Y178.425 E18.85898
G1 X151.925 Y134.575 E20.05315
G1 X93.075 Y134.575 E21.65582
G0 F7800 X92.525 Y134.025
G1 F1800 X92.525 Y178.975 E22.87996
G1 X152.475 Y178.975 E24.51258
G1 X152.475 Y134.025 E25.73672
G1 X92.525 Y134.025 E27.36935
G0 F7800 X91.975 Y133.475
G1 F1800 X91.975 Y179.525 E28.62343
G1 X153.025 Y179.525 E30.28602
G1 X153.025 Y133.475 E31.54011
G1 X91.975 Y133.475 E33.20269
G0 F7800 X91.425 Y132.925
G1 F1800 X91.425 Y180.075 E34.48674
G1 X153.575 Y180.075 E36.17928
G1 X153.575 Y132.925 E37.46332
G1 X91.425 Y132.925 E39.15586
G0 F7800 X90.875 Y132.375
G1 F1800 X90.875 Y180.625 E40.46987
G1 X154.125 Y180.625 E42.19236
G1 X154.125 Y132.375 E43.50637
G1 X90.875 Y132.375 E45.22886
G0 F7800 X90.325 Y131.825
G1 F1800 X90.325 Y181.175 E46.57282
G1 X154.675 Y181.175 E48.32528
G1 X154.675 Y131.825 E49.66923
G1 X90.325 Y131.825 E51.42169
G0 F7800 X89.775 Y131.275
G1 F1800 X89.775 Y181.725 E52.79560
G1 X155.225 Y181.725 E54.57801
G1 X155.225 Y131.275 E55.95193
G1 X89.775 Y131.275 E57.73434
G0 F7800 X89.500 Y109.313
G1 F1800 X90.430 Y109.192 E57.75988
G1 X90.430 Y109.193 E57.75991
G1 X90.461 Y109.188 E57.76076
G1 X91.360 Y108.816 E57.78726
G1 X92.132 Y108.223 E57.81377
G1 X92.724 Y107.451 E57.84026
G1 X93.094 Y106.556 E57.86664
G1 X93.218 Y105.622 E57.89230
G1 X93.222 Y105.591 E57.89315
G1 X93.100 Y104.661 E57.91869
G1 X93.101 Y104.661 E57.91872
G1 X93.096 Y104.630 E57.91957
G1 X92.724 Y103.731 E57.94607
G1 X92.132 Y102.959 E57.97256
G1 X91.360 Y102.366 E57.99907
G1 X90.465 Y101.996 E58.02545
G1 X89.500 Y101.869 E58.05196
G1 X88.570 Y101.990 E58.07750
G1 X88.570 Y101.989 E58.07752
G1 X88.537 Y101.994 E58.07843
G1 X87.638 Y102.367 E58.10494
G1 X86.869 Y102.957 E58.13133
G1 X86.357 Y103.624 E58.15423
G1 X86.575 Y103.624 E58.16017
G1 X86.575 Y107.374 E58.26229
G1 X86.243 Y107.374 E58.27134
G1 X86.275 Y107.451 E58.27361
G1 X86.869 Y108.225 E58.30018
G1 X87.638 Y108.815 E58.32657
G1 X88.534 Y109.186 E58.35298
G1 X89.500 Y109.313 E58.37952
G0 F7800 X151.785 Y105.855
G1 F1800 X151.974 Y106.810 E58.40603
G1 X152.403 Y107.682 E58.43249
G1 X153.021 Y108.388 E58.45805
G1 X153.045 Y108.415 E58.45903
G1 X153.850 Y108.955 E58.48543
G1 X154.770 Y109.267 E58.51188
G1 X155.536 Y109.319 E58.53279
G1 X155.737 Y109.332 E58.53828
G1 X156.693 Y109.142 E58.56482
G1 X157.565 Y108.713 E58.59129
G1 X158.298 Y108.072 E58.61781
G1 X158.838 Y107.266 E58.64423
G1 X159.139 Y106.377 E58.66979
G1 X159.151 Y106.343 E58.67077
G1 X159.214 Y105.378 E58.69711
G1 X159.025 Y104.423 E58.72362
G1 X158.596 Y103.551 E58.75008
G1 X157.978 Y102.845 E58.77564
G1 X157.954 Y102.818 E58.77662
G1 X157.149 Y102.278 E58.80302
G1 X156.229 Y101.966 E58.82947
G1 X155.261 Y101.902 E58.85589
G1 X154.306 Y102.091 E58.88240
G1 X153.434 Y102.520 E58.90887
G1 X152.728 Y103.138 E58.93442
G1 X152.701 Y103.162 E58.93541
G1 X152.161 Y103.967 E58.96180
G1 X151.860 Y104.856 E58.98736
G1 X151.848 Y104.890 E58.98835
G1 X151.785 Y105.855 E59.01468
G0 F7800 X152.393 Y104.998
G1 F1800 X152.348 Y105.665 E59.03289
G1 X152.338 Y105.820 E59.03712
G1 X152.499 Y106.632 E59.05966
G1 X152.863 Y107.372 E59.08212
G1 X153.411 Y107.999 E59.10480
G1 X154.097 Y108.458 E59.12728
G1 X154.879 Y108.723 E59.14976
G1 X155.573 Y108.770 E59.16871
G1 X155.702 Y108.778 E59.17223
G1 X156.515 Y108.617 E59.19480
G1 X157.257 Y108.252 E59.21732
G1 X157.881 Y107.706 E59.23990
G1 X158.340 Y107.021 E59.26235
G1 X158.606 Y106.236 E59.28492
G1 X158.661 Y105.411 E59.30744
G1 X158.500 Y104.601 E59.32993
G1 X158.136 Y103.861 E59.35239
G1 X157.588 Y103.234 E59.37507
G1 X156.904 Y102.776 E59.39749
G1 X156.121 Y102.510 E59.42001
G1 X155.294 Y102.455 E59.44258
G1 X154.484 Y102.616 E59.46507
G1 X153.744 Y102.980 E59.48753
G1 X153.117 Y103.528 E59.51020
G1 X152.658 Y104.214 E59.53268
G1 X152.393 Y104.998 E59.55522
G0 F7800 X141.614 Y66.725
G1 F1800 X141.550 Y66.570 E59.55979
G1 X142.525 Y65.596 E59.59732
G1 X142.525 Y65.395 E59.60279
G1 X143.525 Y64.396 E59.64129
G1 X143.525 Y64.195 E59.64676
G1 X144.525 Y63.196 E59.68525
G1 X144.525 Y62.995 E59.69073
G1 X146.096 Y61.424 E59.75123
G1 X159.204 Y61.424 E60.10821
G1 X160.375 Y62.595 E60.15331
G1 X160.375 Y62.796 E60.15878
G1 X161.375 Y63.795 E60.19727
G1 X161.375 Y63.996 E60.20275
G1 X162.375 Y64.995 E60.24124
G1 X162.375 Y65.196 E60.24672
G1 X163.375 Y66.195 E60.28521
G1 X163.375 Y66.725 E60.29964
G1 X181.614 Y66.725 E60.79635
G1 X181.550 Y66.570 E60.80092
G1 X182.525 Y65.596 E60.83845
G1 X182.525 Y65.395 E60.84392
G1 X183.525 Y64.396 E60.88242
G1 X183.525 Y64.195 E60.88789
G1 X184.525 Y63.196 E60.92638
G1 X184.525 Y62.995 E60.93186
G1 X186.096 Y61.424 E60.99236
G1 X199.204 Y61.424 E61.34933
G1 X200.375 Y62.595 E61.39443
G1 X200.375 Y62.796 E61.39991
G1 X201.375 Y63.795 E61.43840
G1 X201.375 Y63.996 E61.44388
G1 X202.375 Y64.995 E61.48237
G1 X202.375 Y65.196 E61.48784
G1 X203.375 Y66.195 E61.52634
G1 X203.375 Y66.725 E61.54077
G1 X222.775 Y66.725 E62.06910
G1 X222.775 Y197.275 E65.62439
G1 X203.375 Y197.275 E66.15271
G1 X203.375 Y197.603 E66.16164
G1 X202.575 Y198.402 E66.19244
G1 X202.575 Y198.603 E66.19791
G1 X201.775 Y199.402 E66.22870
G1 X201.775 Y199.603 E66.23417
G1 X200.975 Y200.402 E66.26497
G1 X200.975 Y200.603 E66.27044
G1 X200.175 Y201.402 E66.30123
G1 X200.175 Y201.603 E66.30671
G1 X199.004 Y202.774 E66.35180
G1 X185.525 Y202.774 E66.71888
G1 X185.525 Y202.002 E66.73990
G1 X184.725 Y201.203 E66.77070
G1 X184.725 Y201.002 E66.77617
G1 X183.925 Y200.203 E66.80696
G1 X183.925 Y200.002 E66.81244
G1 X183.125 Y199.203 E66.84323
G1 X183.125 Y199.002 E66.84870
G1 X182.325 Y198.203 E66.87949
G1 X182.325 Y198.002 E66.88497
G1 X181.597 Y197.275 E66.91299
G1 X163.375 Y197.275 E67.40923
G1 X163.375 Y197.603 E67.41816
G1 X162.575 Y198.402 E67.44895
G1 X162.575 Y198.603 E67.45443
G1 X161.775 Y199.402 E67.48522
G1 X161.775 Y199.603 E67.49069
G1 X160.975 Y200.402 E67.52148
G1 X160.975 Y200.603 E67.52696
G1 X160.175 Y201.402 E67.55775
G1 X160.175 Y201.603 E67.56322
G1 X159.004 Y202.774 E67.60832
G1 X145.525 Y202.774 E67.97540
G1 X145.525 Y202.002 E67.99642
G1 X144.725 Y201.203 E68.02721
G1 X144.725 Y201.002 E68.03269
G1 X143.925 Y200.203 E68.06348
G1 X143.925 Y200.002 E68.06895
G1 X143.125 Y199.203 E68.09974
G1 X143.125 Y199.002 E68.10522
G1 X142.325 Y198.203 E68.13601
G1 X142.325 Y198.002 E68.14148
G1 X141.597 Y197.275 E68.16950
G1 X103.375 Y197.275 E69.21041
G1 X103.375 Y197.603 E69.21934
G1 X102.575 Y198.402 E69.25013
G1 X102.575 Y198.603 E69.25561
G1 X101.775 Y199.402 E69.28640
G1 X101.775 Y199.603 E69.29187
G1 X100.975 Y200.402 E69.32266
G1 X100.975 Y200.603 E69.32814
G1 X100.175 Y201.402 E69.35893
G1 X100.175 Y201.603 E69.36440
G1 X99.004 Y202.774 E69.40950
G1 X85.525 Y202.774 E69.77658
G1 X85.525 Y202.002 E69.79760
G1 X84.725 Y201.203 E69.82839
G1 X84.725 Y201.002 E69.83387
G1 X83.925 Y200.203 E69.86466
G1 X83.925 Y200.002 E69.87013
G1 X83.125 Y199.203 E69.90092
G1 X83.125 Y199.002 E69.90640
G1 X82.325 Y198.203 E69.93719
G1 X82.325 Y198.002 E69.94266
G1 X81.597 Y197.275 E69.97068
G1 X63.375 Y197.275 E70.46693
G1 X63.375 Y197.603 E70.47586
G1 X62.575 Y198.402 E70.50665
G1 X62.575 Y198.603 E70.51212
G1 X61.775 Y199.402 E70.54292
G1 X61.775 Y199.603 E70.54839
G1 X60.975 Y200.402 E70.57918
G1 X60.975 Y200.603 E70.58465
G1 X60.175 Y201.402 E70.61545
G1 X60.175 Y201.603 E70.62092
G1 X59.004 Y202.774 E70.66602
G1 X45.525 Y202.774 E71.03310
G1 X45.525 Y202.002 E71.05412
G1 X44.725 Y201.203 E71.08491
G1 X44.725 Y201.002 E71.09038
G1 X43.925 Y200.203 E71.12118
G1 X43.925 Y200.002 E71.12665
G1 X43.125 Y199.203 E71.15744
G1 X43.125 Y199.002 E71.16292
G1 X42.325 Y198.203 E71.19371
G1 X42.325 Y198.002 E71.19918
G1 X41.597 Y197.275 E71.22720
G1 X22.225 Y197.275 E71.75476
G1 X22.225 Y66.725 E75.31005
G1 X41.614 Y66.725 E75.83808
G1 X41.550 Y66.570 E75.84264
G1 X42.525 Y65.596 E75.88017
G1 X42.525 Y65.395 E75.88565
G1 X43.525 Y64.396 E75.92414
G1 X43.525 Y64.195 E75.92962
G1 X44.525 Y63.196 E75.96811
G1 X44.525 Y62.995 E75.97358
G1 X46.096 Y61.424 E76.03409
G1 X59.204 Y61.424 E76.39106
G1 X60.375 Y62.595 E76.43616
G1 X60.375 Y62.796 E76.44164
G1 X61.375 Y63.795 E76.48013
G1 X61.375 Y63.996 E76.48560
G1 X62.375 Y64.995 E76.52410
G1 X62.375 Y65.196 E76.52957
G1 X63.375 Y66.195 E76.56807
G1 X63.375 Y66.725 E76.58250
G1 X81.614 Y66.725 E77.07921
G1 X81.550 Y66.570 E77.08377
G1 X82.525 Y65.596 E77.12130
G1 X82.525 Y65.395 E77.12678
G1 X83.525 Y64.396 E77.16527
G1 X83.525 Y64.195 E77.17075
G1 X84.525 Y63.196 E77.20924
G1 X84.525 Y62.995 E77.21471
G1 X86.096 Y61.424 E77.27522
G1 X99.204 Y61.424 E77.63219
G1 X100.375 Y62.595 E77.67729
G1 X100.375 Y62.796 E77.68276
G1 X101.375 Y63.795 E77.72126
G1 X101.375 Y63.996 E77.72673
G1 X102.375 Y64.995 E77.76523
G1 X102.375 Y65.196 E77.77070
G1 X103.375 Y66.195 E77.80920
G1 X103.375 Y66.725 E77.82363
G1 X141.614 Y66.725 E78.86500
G0 F7800 X141.975 Y65.368
G1 F1800 X141.975 Y65.167 E78.87047
G1 X142.975 Y64.168 E78.90897
G1 X142.975 Y63.967 E78.91444
G1 X143.975 Y62.968 E78.95293
G1 X143.975 Y62.767 E78.95841
G1 X145.868 Y60.874 E79.03131
G1 X159.432 Y60.874 E79.40071
G1 X160.925 Y62.367 E79.45821
G1 X160.925 Y62.568 E79.46368
G1 X161.925 Y63.567 E79.50217
G1 X161.925 Y63.768 E79.50765
G1 X162.925 Y64.767 E79.54614
G1 X162.925 Y64.968 E79.55162
G1 X163.925 Y65.967 E79.59011
G1 X163.925 Y66.175 E79.59577
G1 X181.167 Y66.175 E80.06533
G1 X181.975 Y65.368 E80.09643
G1 X181.975 Y65.167 E80.10190
G1 X182.975 Y64.168 E80.14040
G1 X182.975 Y63.967 E80.14587
G1 X183.975 Y62.968 E80.18437
G1 X183.975 Y62.767 E80.18984
G1 X185.868 Y60.874 E80.26275
G1 X199.432 Y60.874 E80.63214
G1 X200.925 Y62.367 E80.68964
G1 X200.925 Y62.568 E80.69511
G1 X201.925 Y63.567 E80.73361
G1 X201.925 Y63.768 E80.73908
G1 X202.925 Y64.767 E80.77757
G1 X202.925 Y64.968 E80.78305
G1 X203.925 Y65.967 E80.82154
G1 X203.925 Y66.175 E80.82721
G1 X223.325 Y66.175 E81.35553
G1 X223.325 Y197.825 E84.94078
G1 X203.925 Y197.825 E85.46910
G1 X203.925 Y197.831 E85.46926
G1 X203.125 Y198.630 E85.50006
G1 X203.125 Y198.831 E85.50553
G1 X202.325 Y199.630 E85.53632
G1 X202.325 Y199.831 E85.54180
G1 X201.525 Y200.630 E85.57259
G1 X201.525 Y200.831 E85.57806
G1 X200.725 Y201.630 E85.60885
G1 X200.725 Y201.831 E85.61433
G1 X199.232 Y203.324 E85.67183
G1 X184.975 Y203.324 E86.06009
G1 X184.975 Y202.230 E86.08988
G1 X184.175 Y201.431 E86.12068
G1 X184.175 Y201.230 E86.12615
G1 X183.375 Y200.431 E86.15694
G1 X183.375 Y200.230 E86.16241
G1 X182.575 Y199.431 E86.19321
G1 X182.575 Y199.230 E86.19868
G1 X181.775 Y198.431 E86.22947
G1 X181.775 Y198.230 E86.23495
G1 X181.370 Y197.825 E86.25054
G1 X163.925 Y197.825 E86.72563
G1 X163.925 Y197.831 E86.72579
G1 X163.125 Y198.630 E86.75658
G1 X163.125 Y198.831 E86.76206
G1 X162.325 Y199.630 E86.79285
G1 X162.325 Y199.831 E86.79832
G1 X161.525 Y200.630 E86.82911
G1 X161.525 Y200.831 E86.83459
G1 X160.725 Y201.630 E86.86538
G1 X160.725 Y201.831 E86.87085
G1 X159.232 Y203.324 E86.92835
G1 X144.975 Y203.324 E87.31662
G1 X144.975 Y202.230 E87.34641
G1 X144.175 Y201.431 E87.37720
G1 X144.175 Y201.230 E87.38267
G1 X143.375 Y200.431 E87.41347
G1 X143.375 Y200.230 E87.41894
G1 X142.575 Y199.431 E87.44973
G1 X142.575 Y199.230 E87.45520
G1 X141.775 Y198.431 E87.48600
G1 X141.775 Y198.230 E87.49147
G1 X141.370 Y197.825 E87.50707
G1 X103.925 Y197.825 E88.52681
G1 X103.925 Y197.831 E88.52698
G1 X103.125 Y198.630 E88.55777
G1 X103.125 Y198.831 E88.56324
G1 X102.325 Y199.630 E88.59404
G1 X102.325 Y199.831 E88.59951
G1 X101.525 Y200.630 E88.63030
G1 X101.525 Y200.831 E88.63577
G1 X100.725 Y201.630 E88.66657
G1 X100.725 Y201.831 E88.67204
G1 X99.232 Y203.324 E88.72954
G1 X84.975 Y203.324 E89.11780
G1 X84.975 Y202.230 E89.14760
G1 X84.175 Y201.431 E89.17839
G1 X84.175 Y201.230 E89.18386
G1 X83.375 Y200.431 E89.21465
G1 X83.375 Y200.230 E89.22013
G1 X82.575 Y199.431 E89.25092
G1 X82.575 Y199.230 E89.25639
G1 X81.775 Y198.431 E89.28719
G1 X81.775 Y198.230 E89.29266
G1 X81.370 Y197.825 E89.30826
G1 X63.925 Y197.825 E89.78334
G1 X63.925 Y197.831 E89.78350
G1 X63.125 Y198.630 E89.81429
G1 X63.125 Y198.831 E89.81977
G1 X62.325 Y199.630 E89.85056
G1 X62.325 Y199.831 E89.85603
G1 X61.525 Y200.630 E89.88683
G1 X61.525 Y200.831 E89.89230
G1 X60.725 Y201.630 E89.92309
G1 X60.725 Y201.831 E89.92856
G1 X59.232 Y203.324 E89.98607
G1 X44.975 Y203.324 E90.37433
G1 X44.975 Y202.230 E90.40412
G1 X44.175 Y201.431 E90.43491
G1 X44.175 Y201.230 E90.44039
G1 X43.375 Y200.431 E90.47118
G1 X43.375 Y200.230 E90.47665
G1 X42.575 Y199.431 E90.50744
G1 X42.575 Y199.230 E90.51292
G1 X41.775 Y198.431 E90.54371
G1 X41.775 Y198.230 E90.54918
G1 X41.370 Y197.825 E90.56478
G1 X21.675 Y197.825 E91.10114
G1 X21.675 Y66.175 E94.68639
G1 X41.167 Y66.175 E95.21722
G1 X41.975 Y65.368 E95.24832
G1 X41.975 Y65.167 E95.25379
G1 X42.975 Y64.168 E95.29228
G1 X42.975 Y63.967 E95.29776
G1 X43.975 Y62.968 E95.33625
G1 X43.975 Y62.767 E95.34173
G1 X45.868 Y60.874 E95.41463
G1 X59.432 Y60.874 E95.78402
G1 X60.925 Y62.367 E95.84152
G1 X60.925 Y62.568 E95.84700
G1 X61.925 Y63.567 E95.88549
G1 X61.925 Y63.768 E95.89097
G1 X62.925 Y64.767 E95.92946
G1 X62.925 Y64.968 E95.93493
G1 X63.925 Y65.967 E95.97343
G1 X63.925 Y66.175 E95.97909
G1 X81.167 Y66.175 E96.44865
G1 X81.975 Y65.368 E96.47975
G1 X81.975 Y65.167 E96.48522
G1 X82.975 Y64.168 E96.52372
G1 X82.975 Y63.967 E96.52919
G1 X83.975 Y62.968 E96.56768
G1 X83.975 Y62.767 E96.57316
G1 X85.868 Y60.874 E96.64606
G1 X99.432 Y60.874 E97.01545
G1 X100.925 Y62.367 E97.07295
G1 X100.925 Y62.568 E97.07843
G1 X101.925 Y63.567 E97.11692
G1 X101.925 Y63.768 E97.12240
G1 X102.925 Y64.767 E97.16089
G1 X102.925 Y64.968 E97.16637
G1 X103.925 Y65.967 E97.20486
G1 X103.925 Y66.175 E97.21052
G1 X141.167 Y66.175 E98.22474
G1 X141.975 Y65.368 E98.25584
G0 F7800 X142.425 Y63.940
G1 F1800 X142.425 Y63.739 E98.26132
G1 X143.425 Y62.740 E98.29981
G1 X143.425 Y62.539 E98.30528
G1 X145.640 Y60.324 E98.39059
G1 X159.660 Y60.324 E98.77240
G1 X161.475 Y62.139 E98.84230
G1 X161.475 Y62.340 E98.84778
G1 X162.475 Y63.339 E98.88627
G1 X162.475 Y63.540 E98.89174
G1 X163.475 Y64.539 E98.93024
G1 X163.475 Y64.740 E98.93571
G1 X164.361 Y65.625 E98.96982
G1 X180.940 Y65.625 E99.42132
G1 X181.425 Y65.140 E99.43999
G1 X181.425 Y64.939 E99.44547
G1 X182.425 Y63.940 E99.48396
G1 X182.425 Y63.739 E99.48944
G1 X183.425 Y62.740 E99.52793
