;Generated with Cura_SteamEngine 14.09
;--------------------------------------
; RF1000
;--------------------------------------
G28 ; home all axes
G1 Z5 F500 ; lift nozzle
M190 S60
M104 T0 S220
; Wait for all used extruders to reach temperature
M109 T0 S220
G90 ; use absolute coordinates
M82 ; use absolute distances for extrusion
G92 E0 ; start line
M3001 ; Aktivate Z-Compensation
; Move Z-axis n-steps up (see manual)
M3004 S0 ; + n-steps bed down // - n-steps bed up!
G1 F300 E-0.5
G1 X230 Y25 Z0.35 F5000
G1 F800 E10
G1 X20 E25 F1000
; Acceleration up to...
; Acc printing
M201 X3000 Y3000 Z100
; Acc travel
M202 X3000 Y3000 Z100
; ZJERK
M205 Z0.1
G92 E0
;--------------------------------------
;Layer count: 49
;LAYER:0
M107
G0 F7800 X17.275 Y44.275 Z0.350
;TYPE:SKIRT
G1 F1800 X227.725 Y44.275 E5.73122
G1 X227.725 Y219.725 E10.50928
G1 X17.275 Y219.725 E16.24051
G1 X17.275 Y44.275 E21.01857
G0 F7800 X17.825 Y44.825
G1 F1800 X227.175 Y44.825 E26.71983
G1 X227.175 Y219.175 E31.46794
G1 X17.825 Y219.175 E37.16920
G1 X17.825 Y44.825 E41.91731
G0 F7800 X18.375 Y45.375
G1 F1800 X226.625 Y45.375 E47.58862
G1 X226.625 Y218.625 E52.30677
G1 X18.375 Y218.625 E57.97808
G1 X18.375 Y45.375 E62.69623
G0 F7800 X18.925 Y45.925
G1 F1800 X226.075 Y45.925 E68.33758
G1 X226.075 Y218.075 E73.02577
G1 X18.925 Y218.075 E78.66712
G1 X18.925 Y45.925 E83.35531
G0 F7800 X19.475 Y46.475
G1 F1800 X225.525 Y46.475 E88.96671
G1 X225.525 Y217.525 E93.62495
G1 X19.475 Y217.525 E99.23634
G1 X19.475 Y46.475 E103.89458
G0 F7800 X20.025 Y47.025
G1 F1800 X224.975 Y47.025 E109.47602
G1 X224.975 Y216.975 E114.10430
G1 X20.025 Y216.975 E119.68574
G1 X20.025 Y47.025 E124.31402
G0 F7800 X20.575 Y47.575
G1 F1800 X224.425 Y47.575 E129.86550
G1 X224.425 Y216.425 E134.46382
G1 X20.575 Y216.425 E140.01531
G1 X20.575 Y47.575 E144.61363
G0 F7800 X21.125 Y48.125
G1 F1800 X223.875 Y48.125 E150.13516
G1 X223.875 Y215.875 E154.70352
G1 X21.125 Y215.875 E160.22505
G1 X21.125 Y48.125 E164.79341
G0 F7800 X21.675 Y48.675
G1 F1800 X223.325 Y48.675 E170.28498
G1 X223.325 Y215.325 E174.82339
G1 X21.675 Y215.325 E180.31496
G1 X21.675 Y48.675 E184.85337
G0 F7800 X22.225 Y49.225
G1 F1800 X222.775 Y49.225 E190.31499
G1 X222.775 Y214.775 E194.82344
G1 X22.225 Y214.775 E200.28505
G1 X22.225 Y49.225 E204.79351
G0 F7800 X22.775 Y49.775
;TYPE:WALL-OUTER
G1 F1800 X222.225 Y49.775 E210.22516
G1 X222.225 Y214.225 E214.70366
G1 X22.775 Y214.225 E220.13532
G1 X22.775 Y49.775 E224.61382
G0 F7800 X23.150 Y50.060
G0 X42.013 Y51.222
G0 X42.387 Y51.225
G1 F1800 X42.384 Y51.618 E224.62452
G1 X42.385 Y54.775 E224.71049
G1 X62.615 Y54.775 E225.26142
G1 X62.615 Y51.622 E225.34729
G1 X62.618 Y51.225 E225.35810
G1 X42.387 Y51.225 E225.90905
G0 F7800 X42.013 Y51.222
G0 X41.975 Y50.808
G0 X63.038 Y50.810
G0 X82.013 Y51.222
G0 X82.387 Y51.225
G1 F1800 X82.384 Y51.618 E225.91976
G1 X82.385 Y54.775 E226.00573
G1 X102.615 Y54.775 E226.55666
G1 X102.615 Y51.622 E226.64252
G1 X102.618 Y51.225 E226.65334
G1 X82.387 Y51.225 E227.20429
G0 F7800 X82.013 Y51.222
G0 X81.975 Y50.808
G0 X103.038 Y50.810
G0 X142.013 Y51.222
G0 X142.387 Y51.225
G1 F1800 X142.384 Y51.618 E227.21499
G1 X142.385 Y54.775 E227.30097
G1 X162.615 Y54.775 E227.85190
G1 X162.615 Y51.622 E227.93776
G1 X162.618 Y51.225 E227.94857
G1 X142.387 Y51.225 E228.49953
G0 F7800 X142.013 Y51.222
G0 X141.975 Y50.808
G0 X163.038 Y50.810
G0 X182.010 Y51.222
G0 X182.384 Y51.225
G1 F1800 X182.381 Y51.618 E228.51023
G1 X182.382 Y54.775 E228.59621
G1 X202.615 Y54.775 E229.14722
G1 X202.612 Y51.622 E229.23308
G1 X202.615 Y51.225 E229.24389
G1 X182.384 Y51.225 E229.79485
G0 F7800 X182.010 Y51.222
G0 X181.002 Y50.150
G0 X181.002 Y49.940
;TYPE:FILL
G1 F1800 X182.220 Y51.157 E229.84174
G0 F7800 X182.219 Y51.934
G1 F1800 X180.224 Y49.940 E229.91855
G0 F7800 X179.446 Y49.940
G1 F1800 X182.218 Y52.711 E230.02529
G0 F7800 X182.217 Y53.489
G1 F1800 X178.668 Y49.940 E230.16198
G0 F7800 X177.891 Y49.940
G1 F1800 X182.217 Y54.266 E230.32859
G0 F7800 X182.006 Y54.266
G0 X177.113 Y50.150
G0 X177.113 Y49.940
G1 F1800 X222.059 Y94.886 E232.05962
G0 F7800 X222.059 Y95.664
G1 F1800 X176.335 Y49.940 E233.82061
G0 F7800 X175.557 Y49.940
G1 F1800 X222.059 Y96.442 E235.61157
G0 F7800 X222.059 Y97.220
G1 F1800 X174.779 Y49.940 E237.43249
G0 F7800 X174.002 Y49.940
G1 F1800 X222.059 Y97.997 E239.28333
G0 F7800 X222.059 Y98.775
G1 F1800 X173.224 Y49.940 E241.16414
G0 F7800 X172.446 Y49.940
G1 F1800 X222.059 Y99.553 E243.07491
G0 F7800 X222.059 Y100.331
G1 F1800 X171.668 Y49.940 E245.01565
G0 F7800 X170.890 Y49.940
G1 F1800 X222.059 Y101.109 E246.98634
G0 F7800 X222.059 Y101.887
G1 F1800 X170.112 Y49.940 E248.98701
G0 F7800 X169.335 Y49.940
G1 F1800 X222.059 Y102.664 E251.01759
G0 F7800 X222.059 Y103.442
G1 F1800 X168.557 Y49.940 E253.07815
G0 F7800 X167.779 Y49.940
G1 F1800 X222.059 Y104.220 E255.16866
G0 F7800 X222.059 Y104.998
G1 F1800 X167.001 Y49.940 E257.28914
G0 F7800 X166.223 Y49.940
G1 F1800 X222.059 Y105.776 E259.43958
G0 F7800 X222.059 Y106.553
G1 F1800 X165.446 Y49.940 E261.61995
G0 F7800 X164.668 Y49.940
G1 F1800 X222.059 Y107.331 E263.83028
G0 F7800 X222.059 Y108.109
G1 F1800 X163.890 Y49.940 E266.07057
G0 F7800 X163.112 Y49.940
G1 F1800 X222.059 Y108.887 E268.34083
G0 F7800 X222.059 Y109.665
G1 F1800 X162.334 Y49.940 E270.64105
G0 F7800 X161.556 Y49.940
G1 F1800 X162.676 Y51.060 E270.68418
G0 F7800 X162.783 Y51.166
G1 F1800 X222.059 Y110.443 E272.96713
G0 F7800 X222.059 Y111.220
G1 F1800 X162.783 Y51.944 E275.25006
G0 F7800 X162.782 Y52.721
G1 F1800 X222.059 Y111.998 E277.53302
G0 F7800 X222.059 Y112.776
G1 F1800 X162.780 Y53.497 E279.81607
G0 F7800 X162.780 Y54.274
G1 F1800 X222.059 Y113.554 E282.09913
G0 F7800 X222.059 Y114.332
G1 F1800 X162.667 Y54.940 E284.38653
G0 F7800 X161.889 Y54.940
G1 F1800 X222.059 Y115.109 E286.70387
G0 F7800 X222.059 Y115.887
G1 F1800 X161.112 Y54.940 E289.05115
G0 F7800 X160.334 Y54.940
G1 F1800 X222.059 Y116.665 E291.42840
G0 F7800 X222.059 Y117.443
G1 F1800 X159.556 Y54.940 E293.83561
G0 F7800 X158.778 Y54.940
G1 F1800 X222.059 Y118.221 E296.27278
G0 F7800 X222.059 Y118.999
G1 F1800 X158.000 Y54.940 E298.73992
G0 F7800 X157.223 Y54.940
G1 F1800 X222.059 Y119.776 E301.23699
G0 F7800 X222.059 Y120.554
G1 F1800 X156.445 Y54.940 E303.76401
G0 F7800 X155.667 Y54.940
G1 F1800 X222.059 Y121.332 E306.32100
G0 F7800 X222.059 Y122.110
G1 F1800 X154.889 Y54.940 E308.90796
G0 F7800 X154.111 Y54.940
G1 F1800 X222.059 Y122.888 E311.52488
G0 F7800 X222.059 Y123.665
G1 F1800 X153.333 Y54.940 E314.17174
G0 F7800 X152.556 Y54.940
G1 F1800 X222.059 Y124.443 E316.84854
G0 F7800 X222.059 Y125.221
G1 F1800 X151.778 Y54.940 E319.55531
G0 F7800 X151.000 Y54.940
G1 F1800 X222.059 Y125.999 E322.29205
G0 F7800 X222.059 Y126.777
G1 F1800 X150.222 Y54.940 E325.05874
G0 F7800 X149.444 Y54.940
G1 F1800 X222.059 Y127.554 E327.85538
G0 F7800 X222.059 Y128.332
G1 F1800 X148.667 Y54.940 E330.68197
G0 F7800 X147.889 Y54.940
G1 F1800 X222.059 Y129.110 E333.53852
G0 F7800 X222.059 Y129.888
G1 F1800 X147.111 Y54.940 E336.42503
G0 F7800 X146.333 Y54.940
G1 F1800 X222.059 Y130.666 E339.34150
G0 F7800 X222.059 Y131.444
G1 F1800 X145.555 Y54.940 E342.28794
G0 F7800 X144.777 Y54.940
G1 F1800 X222.059 Y132.221 E345.26433
G0 F7800 X222.059 Y132.999
G1 F1800 X144.000 Y54.940 E348.27065
G0 F7800 X143.222 Y54.940
G1 F1800 X222.059 Y133.777 E351.30695
G0 F7800 X222.059 Y134.555
G1 F1800 X142.444 Y54.940 E354.37320
G0 F7800 X142.220 Y54.715
G1 F1800 X137.444 Y49.940 E354.55712
G0 F7800 X136.666 Y49.940
G1 F1800 X222.059 Y135.333 E357.84591
G0 F7800 X222.059 Y136.110
G1 F1800 X135.888 Y49.940 E361.16464
G0 F7800 X135.111 Y49.940
G1 F1800 X222.059 Y136.888 E364.51331
G0 F7800 X222.059 Y137.666
G1 F1800 X134.333 Y49.940 E367.89195
G0 F7800 X133.555 Y49.940
G1 F1800 X222.059 Y138.444 E371.30055
G0 F7800 X222.059 Y139.222
G1 F1800 X132.777 Y49.940 E374.73912
G0 F7800 X131.999 Y49.940
G1 F1800 X222.059 Y140.000 E378.20765
G0 F7800 X222.059 Y140.777
G1 F1800 X131.222 Y49.940 E381.70610
G0 F7800 X130.444 Y49.940
G1 F1800 X222.059 Y141.555 E385.23452
G0 F7800 X222.059 Y142.333
G1 F1800 X129.666 Y49.940 E388.79290
G0 F7800 X128.888 Y49.940
G1 F1800 X222.059 Y143.111 E392.38124
G0 F7800 X222.059 Y143.889
G1 F1800 X128.110 Y49.940 E395.99955
G0 F7800 X127.332 Y49.940
G1 F1800 X222.059 Y144.666 E399.64780
G0 F7800 X222.059 Y145.444
G1 F1800 X126.555 Y49.940 E403.32600
G0 F7800 X125.777 Y49.940
G1 F1800 X222.059 Y146.222 E407.03416
G0 F7800 X222.059 Y147.000
G1 F1800 X124.999 Y49.940 E410.77228
G0 F7800 X124.221 Y49.940
G1 F1800 X222.059 Y147.778 E414.54037
G0 F7800 X222.059 Y148.556
G1 F1800 X123.443 Y49.940 E418.33842
G0 F7800 X122.666 Y49.940
G1 F1800 X222.059 Y149.333 E422.16639
G0 F7800 X222.059 Y150.111
G1 F1800 X121.887 Y49.939 E426.02437
G0 F7800 X121.109 Y49.939
G1 F1800 X222.059 Y150.889 E429.91231
G0 F7800 X222.059 Y151.667
G1 F1800 X120.331 Y49.939 E433.83022
G0 F7800 X119.554 Y49.939
G1 F1800 X222.059 Y152.445 E437.77807
G0 F7800 X222.059 Y153.222
G1 F1800 X118.776 Y49.939 E441.75586
G0 F7800 X117.998 Y49.939
G1 F1800 X222.059 Y154.000 E445.76362
G0 F7800 X222.059 Y154.778
G1 F1800 X117.220 Y49.939 E449.80134
G0 F7800 X116.442 Y49.939
G1 F1800 X222.059 Y155.556 E453.86902
G0 F7800 X222.059 Y156.334
G1 F1800 X115.664 Y49.939 E457.96667
G0 F7800 X114.887 Y49.939
G1 F1800 X222.059 Y157.112 E462.09426
G0 F7800 X222.059 Y157.889
G1 F1800 X114.109 Y49.939 E466.25179
G0 F7800 X113.331 Y49.939
G1 F1800 X222.059 Y158.667 E470.43929
G0 F7800 X222.059 Y159.445
G1 F1800 X112.553 Y49.939 E474.65676
G0 F7800 X111.775 Y49.939
G1 F1800 X222.059 Y160.223 E478.90418
G0 F7800 X222.059 Y161.001
G1 F1800 X110.998 Y49.939 E483.18155
G0 F7800 X110.220 Y49.939
G1 F1800 X222.059 Y161.778 E487.48887
G0 F7800 X222.059 Y162.556
G1 F1800 X109.442 Y49.939 E491.82615
G0 F7800 X108.664 Y49.939
G1 F1800 X222.059 Y163.334 E496.19339
G0 F7800 X222.059 Y164.112
G1 F1800 X107.886 Y49.939 E500.59059
G0 F7800 X107.108 Y49.939
G1 F1800 X222.059 Y164.890 E505.01776
G0 F7800 X222.059 Y165.668
G1 F1800 X106.331 Y49.939 E509.47487
G0 F7800 X105.553 Y49.939
G1 F1800 X222.059 Y166.445 E513.96193
G0 F7800 X222.059 Y167.223
G1 F1800 X104.775 Y49.939 E518.47895
G0 F7800 X103.997 Y49.939
G1 F1800 X222.059 Y168.001 E523.02594
G0 F7800 X222.059 Y168.779
G1 F1800 X103.219 Y49.939 E527.60289
G0 F7800 X102.442 Y49.939
G1 F1800 X222.059 Y169.557 E532.20978
G0 F7800 X222.059 Y170.334
G1 F1800 X101.664 Y49.939 E536.84661
G0 F7800 X100.886 Y49.939
G1 F1800 X102.006 Y51.059 E536.88975
G0 F7800 X101.228 Y51.059
G1 F1800 X100.108 Y49.939 E536.93288
G0 F7800 X99.330 Y49.939
G1 F1800 X100.450 Y51.059 E536.97602
G0 F7800 X99.673 Y51.059
G1 F1800 X98.553 Y49.939 E537.01916
G0 F7800 X97.775 Y49.939
G1 F1800 X98.895 Y51.059 E537.06229
G0 F7800 X98.117 Y51.059
G1 F1800 X96.997 Y49.939 E537.10543
G0 F7800 X96.219 Y49.939
G1 F1800 X97.339 Y51.059 E537.14856
G0 F7800 X96.561 Y51.059
G1 F1800 X95.441 Y49.939 E537.19170
G0 F7800 X94.663 Y49.939
G1 F1800 X95.783 Y51.059 E537.23483
G0 F7800 X95.006 Y51.059
G1 F1800 X93.886 Y49.939 E537.27797
G0 F7800 X93.108 Y49.939
G1 F1800 X94.228 Y51.059 E537.32110
G0 F7800 X93.450 Y51.059
G1 F1800 X92.330 Y49.939 E537.36424
G0 F7800 X91.552 Y49.939
G1 F1800 X92.672 Y51.059 E537.40737
G0 F7800 X91.894 Y51.059
G1 F1800 X90.774 Y49.939 E537.45051
G0 F7800 X89.997 Y49.939
G1 F1800 X91.117 Y51.059 E537.49364
G0 F7800 X90.339 Y51.059
G1 F1800 X89.219 Y49.939 E537.53678
G0 F7800 X88.441 Y49.939
G1 F1800 X89.561 Y51.059 E537.57991
G0 F7800 X88.783 Y51.059
G1 F1800 X87.663 Y49.939 E537.62305
G0 F7800 X86.885 Y49.939
G1 F1800 X88.005 Y51.059 E537.66618
G0 F7800 X87.227 Y51.059
G1 F1800 X86.107 Y49.939 E537.70932
G0 F7800 X85.330 Y49.939
G1 F1800 X86.450 Y51.059 E537.75245
G0 F7800 X85.672 Y51.059
G1 F1800 X84.552 Y49.939 E537.79559
G0 F7800 X83.774 Y49.939
G1 F1800 X84.894 Y51.059 E537.83872
G0 F7800 X84.116 Y51.059
G1 F1800 X82.996 Y49.939 E537.88186
G0 F7800 X82.218 Y49.939
G1 F1800 X83.338 Y51.059 E537.92499
G0 F7800 X82.561 Y51.059
G1 F1800 X81.441 Y49.939 E537.96813
G0 F7800 X80.663 Y49.939
G1 F1800 X82.223 Y51.500 E538.02823
G0 F7800 X82.222 Y52.276
G1 F1800 X79.885 Y49.939 E538.11824
G0 F7800 X79.107 Y49.939
G1 F1800 X82.221 Y53.053 E538.23817
G0 F7800 X82.220 Y53.830
G1 F1800 X78.329 Y49.939 E538.38802
G0 F7800 X77.551 Y49.939
G1 F1800 X82.219 Y54.607 E538.56780
G0 F7800 X82.552 Y54.940
G1 F1800 X222.059 Y194.447 E543.94071
G0 F7800 X222.059 Y195.225
G1 F1800 X76.774 Y49.939 E549.53617
G0 F7800 X75.996 Y49.939
G1 F1800 X222.059 Y196.002 E555.16157
G0 F7800 X222.059 Y196.780
G1 F1800 X75.218 Y49.939 E560.81694
G0 F7800 X74.440 Y49.939
G1 F1800 X222.059 Y197.558 E566.50226
G0 F7800 X222.059 Y198.336
G1 F1800 X73.662 Y49.939 E572.21756
G0 F7800 X72.885 Y49.939
G1 F1800 X222.059 Y199.114 E577.96279
G0 F7800 X222.059 Y199.892
G1 F1800 X72.107 Y49.939 E583.73799
G0 F7800 X71.329 Y49.939
G1 F1800 X222.059 Y200.669 E589.54314
G0 F7800 X222.059 Y201.447
G1 F1800 X70.551 Y49.939 E595.37825
G0 F7800 X69.773 Y49.939
G1 F1800 X222.059 Y202.225 E601.24332
G0 F7800 X222.059 Y203.003
G1 F1800 X68.995 Y49.939 E607.13835
G0 F7800 X68.218 Y49.939
G1 F1800 X222.059 Y203.781 E613.06333
G0 F7800 X222.059 Y204.558
G1 F1800 X67.440 Y49.939 E619.01826
G0 F7800 X66.662 Y49.939
G1 F1800 X222.059 Y205.336 E625.00314
G0 F7800 X222.059 Y206.114
G1 F1800 X65.884 Y49.939 E631.01799
G0 F7800 X65.106 Y49.939
G1 F1800 X222.059 Y206.892 E637.06281
G0 F7800 X222.059 Y207.670
G1 F1800 X64.329 Y49.939 E643.13757
G0 F7800 X63.551 Y49.939
G1 F1800 X222.059 Y208.448 E649.24229
G0 F7800 X222.059 Y209.225
G1 F1800 X62.773 Y49.939 E655.37696
G0 F7800 X61.995 Y49.939
G1 F1800 X222.059 Y210.003 E661.54159
G0 F7800 X222.059 Y210.781
G1 F1800 X62.783 Y51.504 E667.67589
G0 F7800 X62.337 Y51.059
G1 F1800 X61.217 Y49.939 E667.71902
G0 F7800 X60.439 Y49.939
G1 F1800 X61.560 Y51.059 E667.76218
G0 F7800 X60.782 Y51.059
G1 F1800 X59.662 Y49.939 E667.80531
G0 F7800 X58.884 Y49.939
G1 F1800 X60.004 Y51.059 E667.84845
G0 F7800 X59.226 Y51.059
G1 F1800 X58.106 Y49.939 E667.89158
G0 F7800 X57.328 Y49.939
G1 F1800 X58.448 Y51.059 E667.93472
G0 F7800 X57.670 Y51.059
G1 F1800 X56.550 Y49.939 E667.97785
G0 F7800 X55.773 Y49.939
G1 F1800 X56.893 Y51.059 E668.02099
G0 F7800 X56.115 Y51.059
G1 F1800 X54.995 Y49.939 E668.06412
G0 F7800 X54.217 Y49.939
G1 F1800 X55.337 Y51.059 E668.10726
G0 F7800 X54.559 Y51.059
G1 F1800 X53.439 Y49.939 E668.15039
G0 F7800 X52.661 Y49.939
G1 F1800 X53.781 Y51.059 E668.19353
G0 F7800 X53.004 Y51.059
G1 F1800 X51.883 Y49.939 E668.23668
G0 F7800 X51.106 Y49.939
G1 F1800 X52.225 Y51.058 E668.27978
G0 F7800 X51.447 Y51.058
G1 F1800 X50.328 Y49.939 E668.32288
G0 F7800 X49.550 Y49.939
G1 F1800 X50.669 Y51.058 E668.36597
G0 F7800 X49.892 Y51.058
G1 F1800 X48.772 Y49.939 E668.40909
G0 F7800 X47.994 Y49.939
G1 F1800 X49.114 Y51.058 E668.45220
G0 F7800 X48.336 Y51.058
G1 F1800 X47.217 Y49.939 E668.49530
G0 F7800 X46.439 Y49.939
G1 F1800 X47.558 Y51.058 E668.53840
G0 F7800 X46.780 Y51.058
G1 F1800 X45.661 Y49.939 E668.58149
G0 F7800 X44.883 Y49.939
G1 F1800 X46.002 Y51.058 E668.62459
G0 F7800 X45.225 Y51.058
G1 F1800 X44.105 Y49.939 E668.66771
G0 F7800 X43.327 Y49.939
G1 F1800 X44.447 Y51.058 E668.71082
G0 F7800 X43.669 Y51.058
G1 F1800 X42.550 Y49.939 E668.75392
G0 F7800 X41.772 Y49.939
G1 F1800 X42.891 Y51.058 E668.79702
G0 F7800 X42.224 Y51.169
G1 F1800 X40.994 Y49.939 E668.84439
G0 F7800 X40.216 Y49.939
G1 F1800 X42.223 Y51.946 E668.92168
G0 F7800 X42.222 Y52.723
G1 F1800 X39.438 Y49.939 E669.02891
G0 F7800 X38.661 Y49.939
