;Generated with Cura_SteamEngine 14.09
;--------------------------------------
; RF1000
;--------------------------------------
G28 ; home all axes
G1 Z5 F500 ; lift nozzle
M190 S60
M104 T0 S220
; Wait for all used extruders to reach temperature
M109 T0 S220
G90 ; use absolute coordinates
M82 ; use absolute distances for extrusion
G92 E0 ; start line
M3001 ; Aktivate Z-Compensation
; Move Z-axis n-steps up (see manual)
M3004 S0 ; + n-steps bed down // - n-steps bed up!
G1 F300 E-0.5
G1 X230 Y25 Z0.35 F5000
G1 F800 E10
G1 X20 E25 F1000
; Acceleration up to...
; Acc printing
M201 X3000 Y3000 Z100
; Acc travel
M202 X3000 Y3000 Z100
; ZJERK
M205 Z0.1
G92 E0
;--------------------------------------
;Layer count: 350
;LAYER:0
M107
G0 F7800 X44.725 Y114.674 Z0.350
;TYPE:SKIRT
G1 F1800 X44.725 Y135.224 E0.55964
G1 X57.275 Y135.224 E0.90142
G1 X57.275 Y114.674 E1.46106
G1 X44.725 Y114.674 E1.80284
G0 F7800 X44.175 Y114.124
G1 F1800 X44.175 Y135.774 E2.39243
G1 X57.825 Y135.774 E2.76417
G1 X57.825 Y114.124 E3.35377
G1 X44.175 Y114.124 E3.72550
G0 F7800 X43.625 Y113.574
G1 F1800 X43.625 Y136.324 E4.34505
G1 X58.375 Y136.324 E4.74674
G1 X58.375 Y113.574 E5.36630
G1 X43.625 Y113.574 E5.76799
G0 F7800 X43.075 Y113.024
G1 F1800 X43.075 Y136.874 E6.41750
G1 X58.925 Y136.874 E6.84914
G1 X58.925 Y113.024 E7.49866
G1 X43.075 Y113.024 E7.93030
G0 F7800 X42.525 Y112.474
G1 F1800 X42.525 Y137.424 E8.60977
G1 X59.475 Y137.424 E9.07137
G1 X59.475 Y112.474 E9.75084
G1 X42.525 Y112.474 E10.21244
G0 F7800 X41.975 Y111.924
G1 F1800 X41.975 Y137.974 E10.92187
G1 X60.025 Y137.974 E11.41343
G1 X60.025 Y111.924 E12.12285
G1 X41.975 Y111.924 E12.61441
G0 F7800 X41.425 Y111.374
G1 F1800 X41.425 Y138.524 E13.35379
G1 X60.575 Y138.524 E13.87530
G1 X60.575 Y111.374 E14.61469
G1 X41.425 Y111.374 E15.13620
G0 F7800 X40.875 Y110.824
G1 F1800 X40.875 Y139.074 E15.90554
G1 X61.125 Y139.074 E16.45701
G1 X61.125 Y110.824 E17.22635
G1 X40.875 Y110.824 E17.77782
G0 F7800 X40.325 Y110.274
G1 F1800 X40.325 Y139.624 E18.57711
G1 X61.675 Y139.624 E19.15854
G1 X61.675 Y110.274 E19.95784
G1 X40.325 Y110.274 E20.53926
G0 F7800 X39.775 Y109.724
G1 F1800 X39.775 Y140.174 E21.36851
G1 X62.225 Y140.174 E21.97990
G1 X62.225 Y109.724 E22.80915
G1 X39.775 Y109.724 E23.42053
G0 F7800 X41.614 Y64.174
G1 F1800 X41.550 Y64.020 E23.42508
G1 X42.525 Y63.046 E23.46261
G1 X42.525 Y62.845 E23.46808
G1 X43.525 Y61.846 E23.50658
G1 X43.525 Y61.645 E23.51205
G1 X44.525 Y60.646 E23.55054
G1 X44.525 Y60.445 E23.55602
G1 X46.096 Y58.874 E23.61652
G1 X59.204 Y58.874 E23.97349
G1 X60.375 Y60.045 E24.01859
G1 X60.375 Y60.246 E24.02407
G1 X61.375 Y61.245 E24.06256
G1 X61.375 Y61.446 E24.06804
G1 X62.375 Y62.445 E24.10653
G1 X62.375 Y62.646 E24.11200
G1 X63.375 Y63.645 E24.15050
G1 X63.375 Y64.174 E24.16490
G1 X81.614 Y64.174 E24.66161
G1 X81.550 Y64.020 E24.66615
G1 X82.525 Y63.046 E24.70368
G1 X82.525 Y62.845 E24.70916
G1 X83.525 Y61.846 E24.74765
G1 X83.525 Y61.645 E24.75313
G1 X84.525 Y60.646 E24.79162
G1 X84.525 Y60.445 E24.79709
G1 X86.096 Y58.874 E24.85760
G1 X99.204 Y58.874 E25.21457
G1 X100.375 Y60.045 E25.25967
G1 X100.375 Y60.246 E25.26514
G1 X101.375 Y61.245 E25.30364
G1 X101.375 Y61.446 E25.30911
G1 X102.375 Y62.445 E25.34761
G1 X102.375 Y62.646 E25.35308
G1 X103.375 Y63.645 E25.39158
G1 X103.375 Y64.174 E25.40598
G1 X141.614 Y64.174 E26.44735
G1 X141.550 Y64.020 E26.45189
G1 X142.525 Y63.046 E26.48942
G1 X142.525 Y62.845 E26.49490
G1 X143.525 Y61.846 E26.53339
G1 X143.525 Y61.645 E26.53887
G1 X144.525 Y60.646 E26.57736
G1 X144.525 Y60.445 E26.58283
G1 X146.096 Y58.874 E26.64334
G1 X159.204 Y58.874 E27.00031
G1 X160.375 Y60.045 E27.04541
G1 X160.375 Y60.246 E27.05088
G1 X161.375 Y61.245 E27.08938
G1 X161.375 Y61.446 E27.09485
G1 X162.375 Y62.445 E27.13335
G1 X162.375 Y62.646 E27.13882
G1 X163.375 Y63.645 E27.17732
G1 X163.375 Y64.174 E27.19172
G1 X181.614 Y64.174 E27.68843
G1 X181.550 Y64.020 E27.69297
G1 X182.525 Y63.046 E27.73050
G1 X182.525 Y62.845 E27.73597
G1 X183.525 Y61.846 E27.77447
G1 X183.525 Y61.645 E27.77994
G1 X184.525 Y60.646 E27.81844
G1 X184.525 Y60.445 E27.82391
G1 X186.096 Y58.874 E27.88442
G1 X199.204 Y58.874 E28.24139
G1 X200.375 Y60.045 E28.28649
G1 X200.375 Y60.246 E28.29196
G1 X201.375 Y61.245 E28.33046
G1 X201.375 Y61.446 E28.33593
G1 X202.375 Y62.445 E28.37442
G1 X202.375 Y62.646 E28.37990
G1 X203.375 Y63.645 E28.41839
G1 X203.375 Y64.174 E28.43280
G1 X222.775 Y64.174 E28.96112
G1 X222.775 Y204.724 E32.78875
G1 X22.225 Y204.724 E38.25036
G1 X22.225 Y64.174 E42.07798
G1 X41.614 Y64.174 E42.60601
G0 F7800 X41.975 Y62.818
G1 F1800 X41.975 Y62.617 E42.61148
G1 X42.975 Y61.618 E42.64997
G1 X42.975 Y61.417 E42.65545
G1 X43.975 Y60.418 E42.69394
G1 X43.975 Y60.217 E42.69942
G1 X45.868 Y58.324 E42.77232
G1 X59.432 Y58.324 E43.14171
G1 X60.925 Y59.817 E43.19921
G1 X60.925 Y60.018 E43.20469
G1 X61.925 Y61.017 E43.24318
G1 X61.925 Y61.218 E43.24866
G1 X62.925 Y62.217 E43.28715
G1 X62.925 Y62.418 E43.29262
G1 X63.925 Y63.417 E43.33112
G1 X63.925 Y63.624 E43.33676
G1 X81.168 Y63.624 E43.80634
G1 X81.975 Y62.818 E43.83740
G1 X81.975 Y62.617 E43.84287
G1 X82.975 Y61.618 E43.88137
G1 X82.975 Y61.417 E43.88684
G1 X83.975 Y60.418 E43.92534
G1 X83.975 Y60.217 E43.93081
G1 X85.868 Y58.324 E44.00372
G1 X99.432 Y58.324 E44.37311
G1 X100.925 Y59.817 E44.43061
G1 X100.925 Y60.018 E44.43608
G1 X101.925 Y61.017 E44.47458
G1 X101.925 Y61.218 E44.48005
G1 X102.925 Y62.217 E44.51854
G1 X102.925 Y62.418 E44.52402
G1 X103.925 Y63.417 E44.56251
G1 X103.925 Y63.624 E44.56815
G1 X141.168 Y63.624 E45.58239
G1 X141.975 Y62.818 E45.61346
G1 X141.975 Y62.617 E45.61893
G1 X142.975 Y61.618 E45.65742
G1 X142.975 Y61.417 E45.66290
G1 X143.975 Y60.418 E45.70139
G1 X143.975 Y60.217 E45.70687
G1 X145.868 Y58.324 E45.77977
G1 X159.432 Y58.324 E46.14916
G1 X160.925 Y59.817 E46.20666
G1 X160.925 Y60.018 E46.21214
G1 X161.925 Y61.017 E46.25063
G1 X161.925 Y61.218 E46.25611
G1 X162.925 Y62.217 E46.29460
G1 X162.925 Y62.418 E46.30007
G1 X163.925 Y63.417 E46.33857
G1 X163.925 Y63.624 E46.34420
G1 X181.168 Y63.624 E46.81379
G1 X181.975 Y62.818 E46.84485
G1 X181.975 Y62.617 E46.85032
G1 X182.975 Y61.618 E46.88882
G1 X182.975 Y61.417 E46.89429
G1 X183.975 Y60.418 E46.93278
G1 X183.975 Y60.217 E46.93826
G1 X185.868 Y58.324 E47.01116
G1 X199.432 Y58.324 E47.38055
G1 X200.925 Y59.817 E47.43806
G1 X200.925 Y60.018 E47.44353
G1 X201.925 Y61.017 E47.48202
G1 X201.925 Y61.218 E47.48750
G1 X202.925 Y62.217 E47.52599
G1 X202.925 Y62.418 E47.53147
G1 X203.925 Y63.417 E47.56996
G1 X203.925 Y63.624 E47.57560
G1 X223.325 Y63.624 E48.10392
G1 X223.325 Y205.274 E51.96150
G1 X21.675 Y205.274 E57.45307
G1 X21.675 Y63.624 E61.31065
G1 X41.168 Y63.624 E61.84151
G1 X41.975 Y62.818 E61.87257
G0 F7800 X42.425 Y61.390
G1 F1800 X42.425 Y61.189 E61.87804
G1 X43.425 Y60.190 E61.91654
G1 X43.425 Y59.989 E61.92201
G1 X45.640 Y57.774 E62.00732
G1 X59.660 Y57.774 E62.38913
G1 X61.475 Y59.589 E62.45903
G1 X61.475 Y59.790 E62.46450
G1 X62.475 Y60.789 E62.50300
G1 X62.475 Y60.990 E62.50847
G1 X63.475 Y61.989 E62.54697
G1 X63.475 Y62.190 E62.55244
G1 X64.360 Y63.074 E62.58650
G1 X80.941 Y63.074 E63.03806
G1 X81.425 Y62.590 E63.05670
G1 X81.425 Y62.389 E63.06217
G1 X82.425 Y61.390 E63.10067
G1 X82.425 Y61.189 E63.10614
G1 X83.425 Y60.190 E63.14463
G1 X83.425 Y59.989 E63.15011
G1 X85.640 Y57.774 E63.23542
G1 X99.660 Y57.774 E63.61723
G1 X101.475 Y59.589 E63.68713
G1 X101.475 Y59.790 E63.69260
G1 X102.475 Y60.789 E63.73110
G1 X102.475 Y60.990 E63.73657
G1 X103.475 Y61.989 E63.77506
G1 X103.475 Y62.190 E63.78054
G1 X104.360 Y63.074 E63.81460
G1 X140.941 Y63.074 E64.81082
G1 X141.425 Y62.590 E64.82946
G1 X141.425 Y62.389 E64.83493
G1 X142.425 Y61.390 E64.87343
G1 X142.425 Y61.189 E64.87890
G1 X143.425 Y60.190 E64.91740
G1 X143.425 Y59.989 E64.92287
G1 X145.640 Y57.774 E65.00818
G1 X159.660 Y57.774 E65.38999
G1 X161.475 Y59.589 E65.45989
G1 X161.475 Y59.790 E65.46536
G1 X162.475 Y60.789 E65.50386
G1 X162.475 Y60.990 E65.50933
G1 X163.475 Y61.989 E65.54783
G1 X163.475 Y62.190 E65.55330
G1 X164.360 Y63.074 E65.58736
G1 X180.941 Y63.074 E66.03892
G1 X181.425 Y62.590 E66.05756
G1 X181.425 Y62.389 E66.06303
G1 X182.425 Y61.390 E66.10153
G1 X182.425 Y61.189 E66.10700
G1 X183.425 Y60.190 E66.14549
G1 X183.425 Y59.989 E66.15097
G1 X185.640 Y57.774 E66.23628
G1 X199.660 Y57.774 E66.61809
G1 X201.475 Y59.589 E66.68799
G1 X201.475 Y59.790 E66.69346
G1 X202.475 Y60.789 E66.73196
G1 X202.475 Y60.990 E66.73743
G1 X203.475 Y61.989 E66.77592
G1 X203.475 Y62.190 E66.78140
G1 X204.360 Y63.074 E66.81546
G1 X223.875 Y63.074 E67.34692
G1 X223.875 Y205.824 E71.23445
G1 X21.125 Y205.824 E76.75598
G1 X21.125 Y63.074 E80.64352
G1 X40.941 Y63.074 E81.18317
G1 X41.425 Y62.590 E81.20181
G1 X41.425 Y62.389 E81.20729
G1 X42.425 Y61.390 E81.24578
G0 F7800 X42.875 Y59.962
G1 F1800 X42.875 Y59.762 E81.25123
G1 X45.413 Y57.224 E81.34897
G1 X59.887 Y57.224 E81.74315
G1 X62.025 Y59.362 E81.82549
G1 X62.025 Y59.562 E81.83093
G1 X63.025 Y60.562 E81.86945
G1 X63.025 Y60.762 E81.87490
G1 X64.025 Y61.762 E81.91341
G1 X64.025 Y61.962 E81.91886
G1 X64.587 Y62.524 E81.94050
G1 X80.713 Y62.524 E82.37966
G1 X80.875 Y62.362 E82.38590
G1 X80.875 Y62.162 E82.39135
G1 X81.875 Y61.162 E82.42986
G1 X81.875 Y60.962 E82.43531
G1 X82.875 Y59.962 E82.47382
G1 X82.875 Y59.762 E82.47927
G1 X85.413 Y57.224 E82.57702
G1 X99.887 Y57.224 E82.97119
G1 X102.025 Y59.362 E83.05353
G1 X102.025 Y59.562 E83.05898
G1 X103.025 Y60.562 E83.09749
G1 X103.025 Y60.762 E83.10294
G1 X104.025 Y61.762 E83.14145
G1 X104.025 Y61.962 E83.14690
G1 X104.587 Y62.524 E83.16854
G1 X140.713 Y62.524 E84.15237
G1 X140.875 Y62.362 E84.15861
G1 X140.875 Y62.162 E84.16405
G1 X141.875 Y61.162 E84.20257
G1 X141.875 Y60.962 E84.20801
G1 X142.875 Y59.962 E84.24653
G1 X142.875 Y59.762 E84.25197
G1 X145.413 Y57.224 E84.34972
G1 X159.887 Y57.224 E84.74389
G1 X162.025 Y59.362 E84.82624
G1 X162.025 Y59.562 E84.83168
G1 X163.025 Y60.562 E84.87020
G1 X163.025 Y60.762 E84.87564
G1 X164.025 Y61.762 E84.91416
G1 X164.025 Y61.962 E84.91960
G1 X164.587 Y62.524 E84.94125
G1 X180.713 Y62.524 E85.38041
G1 X180.875 Y62.362 E85.38665
G1 X180.875 Y62.162 E85.39210
G1 X181.875 Y61.162 E85.43061
G1 X181.875 Y60.962 E85.43606
G1 X182.875 Y59.962 E85.47457
G1 X182.875 Y59.762 E85.48002
G1 X185.413 Y57.224 E85.57776
G1 X199.887 Y57.224 E85.97194
G1 X202.025 Y59.362 E86.05428
G1 X202.025 Y59.562 E86.05973
G1 X203.025 Y60.562 E86.09824
G1 X203.025 Y60.762 E86.10369
G1 X204.025 Y61.762 E86.14220
G1 X204.025 Y61.962 E86.14765
G1 X204.587 Y62.524 E86.16929
G1 X224.425 Y62.524 E86.70954
G1 X224.425 Y206.374 E90.62703
G1 X20.575 Y206.374 E96.17852
G1 X20.575 Y62.524 E100.09601
G1 X40.713 Y62.524 E100.64443
G1 X40.875 Y62.362 E100.65067
G1 X40.875 Y62.162 E100.65612
G1 X41.875 Y61.162 E100.69463
G1 X41.875 Y60.962 E100.70008
G1 X42.875 Y59.962 E100.73859
G0 F7800 X42.325 Y59.734
G1 F1800 X42.325 Y59.534 E100.74404
G1 X45.185 Y56.674 E100.85419
G1 X60.115 Y56.674 E101.26078
G1 X62.575 Y59.134 E101.35552
G1 X62.575 Y59.334 E101.36097
G1 X63.575 Y60.334 E101.39948
G1 X63.575 Y60.534 E101.40493
G1 X64.575 Y61.534 E101.44344
G1 X64.575 Y61.734 E101.44889
G1 X64.815 Y61.974 E101.45813
G1 X80.325 Y61.974 E101.88052
G1 X80.325 Y61.934 E101.88161
G1 X81.325 Y60.934 E101.92012
G1 X81.325 Y60.734 E101.92557
G1 X82.325 Y59.734 E101.96408
G1 X82.325 Y59.534 E101.96953
G1 X85.185 Y56.674 E102.07968
G1 X100.115 Y56.674 E102.48627
G1 X102.575 Y59.134 E102.58101
G1 X102.575 Y59.334 E102.58646
G1 X103.575 Y60.334 E102.62497
G1 X103.575 Y60.534 E102.63042
G1 X104.575 Y61.534 E102.66893
G1 X104.575 Y61.734 E102.67438
G1 X104.815 Y61.974 E102.68362
G1 X140.325 Y61.974 E103.65067
G1 X140.325 Y61.934 E103.65176
G1 X141.325 Y60.934 E103.69028
G1 X141.325 Y60.734 E103.69572
G1 X142.325 Y59.734 E103.73424
G1 X142.325 Y59.534 E103.73968
G1 X145.185 Y56.674 E103.84983
G1 X160.115 Y56.674 E104.25642
G1 X162.575 Y59.134 E104.35117
G1 X162.575 Y59.334 E104.35661
G1 X163.575 Y60.334 E104.39513
G1 X163.575 Y60.534 E104.40057
G1 X164.575 Y61.534 E104.43909
G1 X164.575 Y61.734 E104.44453
G1 X164.815 Y61.974 E104.45378
G1 X180.325 Y61.974 E104.87616
G1 X180.325 Y61.934 E104.87725
G1 X181.325 Y60.934 E104.91577
G1 X181.325 Y60.734 E104.92121
G1 X182.325 Y59.734 E104.95973
G1 X182.325 Y59.534 E104.96517
G1 X185.185 Y56.674 E105.07532
G1 X200.115 Y56.674 E105.48191
G1 X202.575 Y59.134 E105.57666
G1 X202.575 Y59.334 E105.58210
G1 X203.575 Y60.334 E105.62062
G1 X203.575 Y60.534 E105.62606
G1 X204.575 Y61.534 E105.66458
G1 X204.575 Y61.734 E105.67002
G1 X204.815 Y61.974 E105.67927
G1 X224.975 Y61.974 E106.22829
G1 X224.975 Y206.924 E110.17574
G1 X20.025 Y206.924 E115.75718
G1 X20.025 Y61.974 E119.70463
G1 X40.325 Y61.974 E120.25746
G1 X40.325 Y61.934 E120.25855
G1 X41.325 Y60.934 E120.29706
G1 X41.325 Y60.734 E120.30251
G1 X42.325 Y59.734 E120.34102
G0 F7800 X41.775 Y59.506
G1 F1800 X41.775 Y59.306 E120.34647
G1 X44.957 Y56.124 E120.46902
G1 X60.343 Y56.124 E120.88803
G1 X63.125 Y58.906 E120.99517
G1 X63.125 Y59.106 E121.00062
G1 X64.125 Y60.106 E121.03913
G1 X64.125 Y60.306 E121.04458
G1 X65.125 Y61.306 E121.08309
G1 X65.125 Y61.424 E121.08631
G1 X80.057 Y61.424 E121.49295
G1 X80.775 Y60.706 E121.52061
G1 X80.775 Y60.506 E121.52605
G1 X81.775 Y59.506 E121.56457
G1 X81.775 Y59.306 E121.57001
G1 X84.957 Y56.124 E121.69256
G1 X100.343 Y56.124 E122.11157
G1 X103.125 Y58.906 E122.21872
G1 X103.125 Y59.106 E122.22416
G1 X104.125 Y60.106 E122.26268
G1 X104.125 Y60.306 E122.26812
G1 X105.125 Y61.306 E122.30664
G1 X105.125 Y61.424 E122.30985
G1 X140.057 Y61.424 E123.26116
G1 X140.775 Y60.706 E123.28881
G1 X140.775 Y60.506 E123.29426
G1 X141.775 Y59.506 E123.33277
G1 X141.775 Y59.306 E123.33822
G1 X144.957 Y56.124 E123.46077
G1 X160.343 Y56.124 E123.87978
G1 X163.125 Y58.906 E123.98692
G1 X163.125 Y59.106 E123.99237
G1 X164.125 Y60.106 E124.03088
G1 X164.125 Y60.306 E124.03633
G1 X165.125 Y61.306 E124.07484
G1 X165.125 Y61.424 E124.07806
G1 X180.057 Y61.424 E124.48470
G1 X180.775 Y60.706 E124.51236
G1 X180.775 Y60.506 E124.51780
G1 X181.775 Y59.506 E124.55632
G1 X181.775 Y59.306 E124.56176
G1 X184.957 Y56.124 E124.68431
G1 X200.343 Y56.124 E125.10332
G1 X203.125 Y58.906 E125.21047
G1 X203.125 Y59.106 E125.21591
G1 X204.125 Y60.106 E125.25443
G1 X204.125 Y60.306 E125.25987
G1 X205.125 Y61.306 E125.29839
G1 X205.125 Y61.424 E125.30160
G1 X225.525 Y61.424 E125.85716
G1 X225.525 Y207.474 E129.83456
G1 X19.475 Y207.474 E135.44596
G1 X19.475 Y61.424 E139.42337
G1 X40.057 Y61.424 E139.98388
G1 X40.775 Y60.706 E140.01153
G1 X40.775 Y60.506 E140.01698
G1 X41.775 Y59.506 E140.05549
G0 F7800 X41.225 Y59.278
G1 F1800 X41.225 Y59.078 E140.06094
G1 X44.729 Y55.574 E140.19589
G1 X60.571 Y55.574 E140.62732
G1 X63.675 Y58.678 E140.74686
G1 X63.675 Y58.878 E140.75231
G1 X64.675 Y59.878 E140.79082
G1 X64.675 Y60.078 E140.79627
G1 X65.471 Y60.874 E140.82693
G1 X79.829 Y60.874 E141.21794
G1 X80.225 Y60.478 E141.23319
G1 X80.225 Y60.278 E141.23864
G1 X81.225 Y59.278 E141.27715
G1 X81.225 Y59.078 E141.28260
G1 X84.729 Y55.574 E141.41755
G1 X100.571 Y55.574 E141.84898
G1 X103.675 Y58.678 E141.96853
G1 X103.675 Y58.878 E141.97397
G1 X104.675 Y59.878 E142.01249
G1 X104.675 Y60.078 E142.01793
G1 X105.471 Y60.874 E142.04859
G1 X139.829 Y60.874 E142.98427
G1 X140.225 Y60.478 E142.99952
G1 X140.225 Y60.278 E143.00496
G1 X141.225 Y59.278 E143.04348
G1 X141.225 Y59.078 E143.04893
G1 X144.729 Y55.574 E143.18388
G1 X160.571 Y55.574 E143.61530
G1 X163.675 Y58.678 E143.73485
G1 X163.675 Y58.878 E143.74030
